icons-rebrand/svg/closed-caption-badge-regular.svg

<svg xmlns="http://www.w3.org/2000/svg" width="32" height="32" viewBox="0 0 32 32"><path d="M25 6.25H7C5.74063 6.25132 4.53322 6.75219 3.6427 7.6427C2.75219 8.53322 2.25132 9.74063 2.25 11V21C2.25159 22.2593 2.75254 23.4666 3.643 24.357C4.53345 25.2475 5.74071 25.7484 7 25.75H25C26.2594 25.7487 27.4668 25.2478 28.3573 24.3573C29.2478 23.4668 29.7487 22.2594 29.75 21V11C29.7484 9.74071 29.2475 8.53345 28.357 7.643C27.4666 6.75254 26.2593 6.25159 25 6.25ZM28.25 21C28.2489 21.8616 27.9062 22.6877 27.2969 23.2969C26.6877 23.9062 25.8616 24.2489 25 24.25H7C6.13837 24.2489 5.31234 23.9062 4.70307 23.2969C4.09381 22.6877 3.75106 21.8616 3.75 21V11C3.75106 10.1384 4.09381 9.31234 4.70307 8.70307C5.31234 8.09381 6.13837 7.75106 7 7.75H25C25.8616 7.75106 26.6877 8.09381 27.2969 8.70307C27.9062 9.31234 28.2489 10.1384 28.25 11V21Z M13.8298 18.1201C13.6471 18.2995 13.4293 18.4391 13.1901 18.5303C12.9509 18.6215 12.6955 18.6623 12.4398 18.6501C12.1819 18.6599 11.9251 18.6119 11.6881 18.5099C11.4511 18.4078 11.2399 18.2542 11.0698 18.0601C10.5927 17.438 10.3613 16.662 10.4198 15.8801C10.3788 15.1801 10.5568 14.4841 10.9298 13.8901C11.1043 13.6387 11.3401 13.436 11.6148 13.3013C11.8896 13.1665 12.1942 13.1042 12.4998 13.1201C12.9098 13.1071 13.3128 13.2261 13.6498 13.4601C13.832 13.5993 13.9844 13.7737 14.0978 13.973C14.2112 14.1723 14.2833 14.3924 14.3098 14.6201H15.5998C15.5406 13.9673 15.2327 13.3622 14.7398 12.9301C14.1208 12.3914 13.3198 12.1089 12.4998 12.1401C11.6396 12.1009 10.7987 12.4028 10.1598 12.9801C9.78874 13.3615 9.5025 13.8171 9.31982 14.3168C9.13714 14.8166 9.06216 15.3493 9.09978 15.8801C9.04839 16.8376 9.33509 17.7826 9.90978 18.5501C10.2146 18.9144 10.6002 19.2027 11.0359 19.3919C11.4716 19.5811 11.9455 19.6661 12.4198 19.6401C13.1902 19.6671 13.9462 19.4268 14.5598 18.9601C14.8737 18.7142 15.1316 18.4042 15.3161 18.0507C15.5006 17.6971 15.6076 17.3083 15.6298 16.9101H14.3298C14.3171 17.3611 14.1392 17.7917 13.8298 18.1201ZM21.1568 18.1201C20.974 18.2995 20.756 18.4392 20.5166 18.5304C20.2773 18.6216 20.0216 18.6624 19.7658 18.6501C19.5079 18.6599 19.2511 18.612 19.0141 18.51C18.7771 18.4079 18.5658 18.2542 18.3958 18.0601C17.9187 17.4379 17.6874 16.662 17.7458 15.8801C17.7048 15.1801 17.8828 14.4841 18.2558 13.8901C18.4303 13.6388 18.6661 13.4362 18.9409 13.3014C19.2156 13.1667 19.5202 13.1043 19.8258 13.1201C20.2358 13.1071 20.6398 13.2261 20.9758 13.4601C21.1582 13.5992 21.3108 13.7735 21.4244 13.9728C21.538 14.1721 21.6102 14.3923 21.6368 14.6201H22.9258C22.8666 13.9673 22.5587 13.3622 22.0658 12.9301C21.4468 12.3914 20.6458 12.1089 19.8258 12.1401C18.9656 12.1008 18.1246 12.4027 17.4858 12.9801C17.1147 13.3615 16.8285 13.8171 16.6458 14.3168C16.4631 14.8166 16.3882 15.3493 16.4258 15.8801C16.3744 16.8376 16.6611 17.7826 17.2358 18.5501C17.5406 18.9145 17.9261 19.2028 18.3619 19.392C18.7976 19.5812 19.2715 19.6662 19.7458 19.6401C20.5165 19.6672 21.2729 19.427 21.8868 18.9601C22.2007 18.7142 22.4586 18.4042 22.6431 18.0507C22.8276 17.6971 22.9346 17.3083 22.9568 16.9101H21.6568C21.6441 17.3611 21.4662 17.7917 21.1568 18.1201Z"/></svg>

<svg width="32" height="32" viewBox="0 0 32 32" xmlns="http://www.w3.org/2000/svg"><path d="M25 6.25H7A4.755 4.755 0 0 0 2.25 11v10A4.756 4.756 0 0 0 7 25.75h18A4.755 4.755 0 0 0 29.75 21V11A4.756 4.756 0 0 0 25 6.25ZM28.25 21A3.254 3.254 0 0 1 25 24.25H7A3.254 3.254 0 0 1 3.75 21V11A3.254 3.254 0 0 1 7 7.75h18A3.254 3.254 0 0 1 28.25 11v10Z"/><path d="M13.83 18.12a1.858 1.858 0 0 1-1.39.53 1.735 1.735 0 0 1-1.37-.59 3.191 3.191 0 0 1-.65-2.18c-.041-.7.137-1.396.51-1.99a1.797 1.797 0 0 1 1.57-.77c.41-.013.813.106 1.15.34a1.708 1.708 0 0 1 .66 1.16h1.29a2.554 2.554 0 0 0-.86-1.69 3.225 3.225 0 0 0-2.24-.79 3.268 3.268 0 0 0-2.34.84 3.776 3.776 0 0 0-1.06 2.9 4.089 4.089 0 0 0 .81 2.67 3.055 3.055 0 0 0 2.51 1.09 3.342 3.342 0 0 0 2.14-.68 2.802 2.802 0 0 0 1.07-2.05h-1.3a1.84 1.84 0 0 1-.5 1.21ZM21.157 18.12a1.859 1.859 0 0 1-1.391.53 1.734 1.734 0 0 1-1.37-.59 3.192 3.192 0 0 1-.65-2.18c-.041-.7.137-1.396.51-1.99a1.798 1.798 0 0 1 1.57-.77c.41-.013.814.106 1.15.34a1.707 1.707 0 0 1 .661 1.16h1.289a2.554 2.554 0 0 0-.86-1.69 3.225 3.225 0 0 0-2.24-.79 3.267 3.267 0 0 0-2.34.84 3.776 3.776 0 0 0-1.06 2.9 4.089 4.089 0 0 0 .81 2.67 3.054 3.054 0 0 0 2.51 1.09 3.343 3.343 0 0 0 2.141-.68 2.802 2.802 0 0 0 1.07-2.05h-1.3a1.84 1.84 0 0 1-.5 1.21Z"/></svg>
